X:29
T:Captain Ward - Fone
%%VWML:SBG-1-2-782-0
F:http://www.vwml.org/record/SBG/1/2/782
Z:Original Sibelius transcriptions by M. & S. Graebe
L:1/8
M:4/4
I:linebreak $
K:Eb
V:1 treble nm="P1"
V:2 treble 
L:1/4
V:1
"^?one sharp" (E>G) | B3 G e3 c | B4 G2 EG | B2 A2 GF ED | E4 B2 | e2 B2 d2 e2 | %6
 f2 e2 z2 (3Bcd65/64 |$ e3 B dc B=A | B4 | dc | d2 e2 e2 d2 | e2 B2 E2 B2 | c3 d e2 B2 |$ B4 (FE) | %14
 G3 B e3 e | d2 c2 B2 EG | B3 A G2 F2 | E6 x2 | %18
V:2
 x | x4 | x4 | x4 | x3 | x4 | x4 |$ x4 | x2 | x | x g g x | x4 | x4 |$ x3 | x4 | x4 | x4 | x4 | %18

